svg/u1f3f3_200d_26a7.svg

<svg viewBox="0 0 128 128" xmlns="http://www.w3.org/2000/svg">
  <g>
    <g>
      <path d="M124,38.2c-1.8,1.1-3.7,2.1-5.4,2.8c-1.8,0.8-3.5,1.5-5.2,2s-3.4,1-5.1,1.3s-3.3,0.5-4.9,0.7 s-3.2,0.2-4.8,0.2S95.5,45.1,94,45s-3-0.3-4.5-0.5s-2.9-0.5-4.4-0.7s-2.9-0.6-4.3-0.9s-2.8-0.7-4.2-1c-1.4-0.4-2.8-0.8-4.2-1.2 s-2.8-0.8-4.2-1.2c-1.4-0.4-2.8-0.8-4.2-1.2c-1.4-0.4-2.8-0.8-4.2-1.2s-2.8-0.8-4.2-1.2s-2.8-0.8-4.2-1.2s-2.8-0.7-4.2-1 s-2.9-0.6-4.3-0.9c-1.5-0.3-2.9-0.5-4.4-0.7s-3-0.4-4.5-0.5s-3.1-0.2-4.6-0.2s-3.1,0.1-4.8,0.2s-3.2,0.4-4.9,0.7 c-1.7,0.3-3.3,0.7-5.1,1.3s-3.5,1.2-5.2,2c-1.8,0.8-3.6,1.7-5.4,2.8v-5c0,0,0-5.9,0-7.4v-5c1.8-1.1,3.7-2.1,5.4-2.9s3.5-1.5,5.2-2 s3.4-0.9,5.1-1.3c1.7-0.3,3.3-0.5,4.9-0.7c1.6-0.1,3.2-0.2,4.8-0.2s3.1,0.1,4.6,0.2c1.5,0.1,3,0.3,4.5,0.5s3,0.4,4.4,0.7 s2.9,0.6,4.3,0.9c1.4,0.3,2.8,0.7,4.2,1c1.4,0.4,2.8,0.8,4.2,1.1s2.8,0.8,4.2,1.2s2.8,0.8,4.2,1.2c1.4,0.4,2.8,0.8,4.2,1.2 s2.8,0.8,4.2,1.2s2.8,0.8,4.2,1.1s2.8,0.7,4.2,1c1.4,0.3,2.9,0.6,4.3,0.9s2.9,0.5,4.4,0.7s3,0.4,4.5,0.5s3.1,0.2,4.6,0.2 s3.1-0.1,4.8-0.2s3.2-0.4,4.9-0.7c1.7-0.3,3.3-0.7,5.1-1.3s3.5-1.2,5.2-2s3.6-1.7,5.4-2.9v5v4.4C124,30.2,124,36.3,124,38.2 L124,38.2z" fill="#5BCEFA"/>
      <g>
        <path d="M124,55.6c-6.76,4.13-14.71,6.63-22.63,6.96c-8,0.34-15.89-1.13-23.62-3 C61.77,55.71,46.09,48.79,29.4,48.8c-8.87,0-17.7,2.34-25.4,6.8c0-4.34,0-17.39,0-17.39s1.92-1.13,2.58-1.47 c2.18-1.15,4.5-2.15,6.83-2.95c4.91-1.69,10.07-2.48,15.25-2.58c10.64-0.19,21.01,2.8,31.14,5.69c10.3,2.94,20.53,6.26,31.2,7.6 c11.47,1.44,23.05-0.42,33-6.5C124,43.87,124,49.73,124,55.6z" fill="#F5A9B8"/>
        <path d="M124,73c-6.76,4.13-14.71,6.63-22.63,6.96c-7.89,0.33-16.04-0.91-23.62-3.04 c-8.28-2.32-16.55-4.73-24.82-7.09c-3.88-1.11-7.87-2.02-11.86-2.67c-3.82-0.62-7.79-1.16-11.66-1.17 c-9.07-0.03-17.58,2.47-25.4,7c0-4.23,0-17.4,0-17.4s1.69-0.99,2.25-1.29c2.23-1.2,4.6-2.23,6.98-3.07 c4.95-1.73,10.19-2.54,15.42-2.63c10.51-0.18,20.75,2.73,30.76,5.58C69.85,57.17,80.2,60.54,91,61.9 c11.47,1.44,23.05-0.42,33-6.5C124,61.27,124,67.13,124,73z" fill="#FFFFFF"/>
        <g>
          <path d="M124,73c-1.8,1.1-3.7,2.1-5.4,2.8c-1.8,0.8-3.5,1.4-5.2,2s-3.4,0.9-5.1,1.3 c-1.7,0.3-3.3,0.5-4.9,0.7s-3.2,0.2-4.8,0.2s-3.1-0.1-4.6-0.2s-3-0.3-4.5-0.5s-2.9-0.4-4.4-0.7s-2.9-0.6-4.3-0.9 S78,77,76.6,76.6c-1.4-0.4-2.8-0.8-4.2-1.2s-2.8-0.8-4.2-1.2c-1.4-0.4-2.8-0.8-4.2-1.2s-2.8-0.8-4.2-1.2S57,71,55.6,70.6 c-1.4-0.4-2.8-0.8-4.2-1.2s-2.8-0.7-4.2-1s-2.9-0.6-4.3-0.9c-1.5-0.3-2.9-0.5-4.4-0.7s-3-0.4-4.5-0.5S30.9,66,29.4,66 s-3.1,0.1-4.8,0.2s-3.2,0.4-4.9,0.7c-1.7,0.3-3.3,0.7-5.1,1.3s-3.5,1.2-5.2,2C7.7,70.9,5.9,71.9,4,73v-5c0,0,0-5.9,0-7.4v-5 c1.8-1.1,3.7-2.1,5.4-2.8s3.5-1.5,5.2-2s3.4-1,5.1-1.3c1.7-0.3,3.3-0.5,4.9-0.7c1.6-0.1,3.2-0.2,4.8-0.2s3.1,0.1,4.6,0.2 c1.5,0.1,3,0.3,4.5,0.5s3,0.5,4.4,0.7s2.9,0.6,4.3,0.9s2.8,0.7,4.2,1c1.4,0.4,2.8,0.8,4.2,1.2s2.8,0.8,4.2,1.2s2.8,0.8,4.2,1.2 s2.8,0.8,4.2,1.2s2.8,0.8,4.2,1.2s2.8,0.8,4.2,1.2s2.8,0.7,4.2,1c1.4,0.3,2.9,0.6,4.3,0.9c1.4,0.3,2.9,0.5,4.4,0.7 s3,0.4,4.5,0.5s3.1,0.2,4.6,0.2s3.1-0.1,4.8-0.2s3.2-0.4,4.9-0.7c1.7-0.3,3.3-0.7,5.1-1.3s3.5-1.2,5.2-2s3.6-1.7,5.4-2.8v5V68 C124,68,124,71.1,124,73z" fill="none"/>
          <g>
            <path d="M124,90.4c-6.7,4.09-14.43,6.47-22.26,6.9c-7.89,0.43-16.01-0.77-23.61-2.87 c-8.29-2.29-16.55-4.72-24.82-7.09c-7.67-2.19-15.55-3.87-23.56-3.94c-9.05-0.08-18.01,2.27-25.75,7C4,86.17,4,73,4,73 s2.99-1.69,3.7-2.03c5.01-2.43,10.28-3.92,15.79-4.63c10.97-1.41,22,1.4,32.49,4.27c5.62,1.53,11.2,3.2,16.8,4.8 c5.39,1.54,10.78,2.99,16.34,3.74c5.98,0.8,12.05,1.11,18.03,0.06c5.93-1.05,11.7-3.16,16.85-6.31 C124,78.73,124,84.57,124,90.4z" fill="#F5A9B8"/>
            <path d="M124,107.8c-1.8,1.1-3.7,2.1-5.4,2.8c-1.8,0.8-3.5,1.4-5.2,2s-3.4,0.9-5.1,1.3s-3.3,0.5-4.9,0.7 c-1.6,0.1-3.2,0.2-4.8,0.2s-3.1-0.1-4.6-0.2s-3-0.3-4.5-0.5s-2.9-0.4-4.4-0.7s-2.9-0.6-4.3-0.9s-2.8-0.7-4.2-1.1 c-1.4-0.4-2.8-0.8-4.2-1.2c-1.4-0.4-2.8-0.8-4.2-1.2c-1.4-0.4-2.8-0.8-4.2-1.2c-1.4-0.4-2.8-0.8-4.2-1.2s-2.8-0.8-4.2-1.2 c-1.4-0.4-2.8-0.8-4.2-1.2s-2.8-0.7-4.2-1.1s-2.9-0.6-4.3-0.9c-1.5-0.3-2.9-0.5-4.4-0.7s-3-0.4-4.5-0.5s-3.1-0.2-4.6-0.2 s-3.1,0.1-4.8,0.2s-3.2,0.4-4.9,0.7s-3.3,0.7-5.1,1.3s-3.5,1.2-5.2,2s-3.6,1.7-5.4,2.8v-5c0,0,0-5.9,0-7.4v-5 c1.8-1.1,3.7-2.1,5.4-2.8c1.8-0.8,3.5-1.4,5.2-2s3.4-0.9,5.1-1.3c1.7-0.3,3.3-0.5,4.9-0.7c1.6-0.1,3.2-0.2,4.8-0.2 s3.1,0.1,4.6,0.2s3,0.3,4.5,0.5s3,0.4,4.4,0.7s2.9,0.6,4.3,0.9s2.8,0.7,4.2,1.1s2.8,0.8,4.2,1.2c1.4,0.4,2.8,0.8,4.2,1.2 c1.4,0.4,2.8,0.8,4.2,1.2c1.4,0.4,2.8,0.8,4.2,1.2s2.8,0.8,4.2,1.2s2.8,0.8,4.2,1.2s2.8,0.7,4.2,1.1c1.4,0.3,2.9,0.6,4.3,0.9 s2.9,0.5,4.4,0.7s3,0.4,4.5,0.5s3.1,0.2,4.6,0.2s3.1-0.1,4.8-0.2s3.2-0.4,4.9-0.7c1.7-0.3,3.3-0.7,5.1-1.3s3.5-1.2,5.2-2 s3.6-1.7,5.4-2.8v5v7.4C124,102.8,124,105.9,124,107.8z" fill="#5BCEFA"/>
          </g>
        </g>
      </g>
    </g>
    <g opacity="0.2">
      <path d="M120,26.6c0,8.17,0,79.41,0,79.41s-10.58,4.91-20.25,4.78c-10.64-0.13-20.83-2.55-30.96-5.5 c-7.53-2.19-14.97-4.64-22.6-6.48c-10.2-2.46-20.94-2.84-31.1-0.06c-2.51,0.69-4.75,1.83-7.1,2.94c0-7.04,0-14.08,0-21.13 c0-9.48,0-58.13,0-58.13s6.67-3.86,16.68-4.83c10.08-0.98,20.09,1.28,29.73,3.94c18.93,5.22,39.05,13.97,58.85,7.75 C115.56,28.58,117.83,27.63,120,26.6 M124,20.4c-8.9,5.44-18.94,7.61-29.31,6.95c-10.36-0.67-20.39-3.7-30.31-6.54 c-10.05-2.87-20.23-6.03-30.73-6.73c-5.09-0.34-13.74-0.18-22.21,3.15C10.34,17.66,4,20.89,4,20.89s0,84.51,0,86.91 c8.76-5.35,18.95-7.51,29.13-6.86c10.61,0.68,20.71,3.95,30.87,6.86c10.09,2.88,20.16,6.18,30.7,6.85 c10.08,0.64,19.47-1.06,29.3-6.85C124,107.8,124,22.01,124,20.4z" fill="#424242"/>
    </g>
  </g>
</svg>

<svg viewBox="0 0 128 128" xmlns="http://www.w3.org/2000/svg">
  <defs/>
  <path d="M124,38.2 C122.2,39.3 120.3,40.3 118.6,41 C116.8,41.8 115.1,42.5 113.4,43 C111.7,43.5 110,44 108.3,44.3 C106.6,44.6 105,44.8 103.4,45 C101.8,45.2 100.2,45.2 98.6,45.2 C97,45.2 95.5,45.1 94,45 C92.5,44.9 91,44.7 89.5,44.5 C88,44.3 86.6,44 85.1,43.8 C83.6,43.6 82.2,43.2 80.8,42.9 C79.4,42.6 78,42.2 76.6,41.9 C75.2,41.5 73.8,41.1 72.4,40.7 C71,40.3 69.6,39.9 68.2,39.5 C66.8,39.1 65.4,38.7 64,38.3 C62.6,37.9 61.2,37.5 59.8,37.1 C58.4,36.7 57,36.3 55.6,35.9 C54.2,35.5 52.8,35.1 51.4,34.7 C50,34.3 48.6,34 47.2,33.7 C45.8,33.4 44.3,33.1 42.9,32.8 C41.4,32.5 40,32.3 38.5,32.1 C37,31.9 35.5,31.7 34,31.6 C32.5,31.5 30.9,31.4 29.4,31.4 C27.9,31.4 26.3,31.5 24.6,31.6 C22.9,31.7 21.4,32 19.7,32.3 C18,32.6 16.4,33 14.6,33.6 C12.8,34.2 11.1,34.8 9.4,35.6 C7.6,36.4 5.8,37.3 4,38.4 L4,33.4 C4,33.4 4,27.5 4,26 L4,21 C5.8,19.9 7.7,18.9 9.4,18.1 C11.1,17.3 12.9,16.6 14.6,16.1 C16.3,15.6 18,15.2 19.7,14.8 C21.4,14.5 23,14.3 24.6,14.1 C26.2,14 27.8,13.9 29.4,13.9 C31,13.9 32.5,14 34,14.1 C35.5,14.2 37,14.4 38.5,14.6 C40,14.8 41.5,15 42.9,15.3 C44.3,15.6 45.8,15.9 47.2,16.2 C48.6,16.5 50,16.9 51.4,17.2 C52.8,17.6 54.2,18 55.6,18.3 C57,18.6 58.4,19.1 59.8,19.5 C61.2,19.9 62.6,20.3 64,20.7 C65.4,21.1 66.8,21.5 68.2,21.9 C69.6,22.3 71,22.7 72.4,23.1 C73.8,23.5 75.2,23.9 76.6,24.2 C78,24.5 79.4,24.9 80.8,25.2 C82.2,25.5 83.7,25.8 85.1,26.1 C86.5,26.4 88,26.6 89.5,26.8 C91,27 92.5,27.2 94,27.3 C95.5,27.4 97.1,27.5 98.6,27.5 C100.1,27.5 101.7,27.4 103.4,27.3 C105.1,27.2 106.6,26.9 108.3,26.6 C110,26.3 111.6,25.9 113.4,25.3 C115.2,24.7 116.9,24.1 118.6,23.3 C120.3,22.5 122.2,21.6 124,20.4 L124,25.4 L124,29.8 C124,30.2 124,36.3 124,38.2 L124,38.2 Z" fill="#5BCEFA"/>
  <path d="M124,55.6 C117.24,59.73 109.29,62.23 101.37,62.56 C93.37,62.9 85.48,61.43 77.75,59.56 C61.77,55.71 46.09,48.79 29.4,48.8 C20.53,48.8 11.7,51.14 4,55.6 C4,51.26 4,38.21 4,38.21 C4,38.21 5.92,37.08 6.58,36.74 C8.76,35.59 11.08,34.59 13.41,33.79 C18.32,32.1 23.48,31.31 28.66,31.21 C39.3,31.02 49.67,34.01 59.8,36.9 C70.1,39.84 80.33,43.16 91,44.5 C102.47,45.94 114.05,44.08 124,38 C124,43.87 124,49.73 124,55.6 Z" fill="#F5A9B8"/>
  <path d="M124,73 C117.24,77.13 109.29,79.63 101.37,79.96 C93.48,80.29 85.33,79.05 77.75,76.92 C69.47,74.6 61.2,72.19 52.93,69.83 C49.05,68.72 45.06,67.81 41.07,67.16 C37.25,66.54 33.28,66 29.41,65.99 C20.34,65.96 11.83,68.46 4.01,72.99 C4.01,68.76 4.01,55.59 4.01,55.59 C4.01,55.59 5.7,54.6 6.26,54.3 C8.49,53.1 10.86,52.07 13.24,51.23 C18.19,49.5 23.43,48.69 28.66,48.6 C39.17,48.42 49.41,51.33 59.42,54.18 C69.85,57.17 80.2,60.54 91,61.9 C102.47,63.34 114.05,61.48 124,55.4 C124,61.27 124,67.13 124,73 Z" fill="#FFFFFF"/>
  <path d="M124,90.4 C117.3,94.49 109.57,96.87 101.74,97.3 C93.85,97.73 85.73,96.53 78.13,94.43 C69.84,92.14 61.58,89.71 53.31,87.34 C45.64,85.15 37.76,83.47 29.75,83.4 C20.7,83.32 11.74,85.67 4,90.4 C4,86.17 4,73 4,73 C4,73 6.99,71.31 7.7,70.97 C12.71,68.54 17.98,67.05 23.49,66.34 C34.46,64.93 45.49,67.74 55.98,70.61 C61.6,72.14 67.18,73.81 72.78,75.41 C78.17,76.95 83.56,78.4 89.12,79.15 C95.1,79.95 101.17,80.26 107.15,79.21 C113.08,78.16 118.85,76.05 124,72.9 C124,78.73 124,84.57 124,90.4 Z" fill="#F5A9B8"/>
  <path d="M124,107.8 C122.2,108.9 120.3,109.9 118.6,110.6 C116.8,111.4 115.1,112 113.4,112.6 C111.7,113.2 110,113.5 108.3,113.9 C106.6,114.3 105,114.4 103.4,114.6 C101.8,114.7 100.2,114.8 98.6,114.8 C97,114.8 95.5,114.7 94,114.6 C92.5,114.5 91,114.3 89.5,114.1 C88,113.9 86.6,113.7 85.1,113.4 C83.6,113.1 82.2,112.8 80.8,112.5 C79.4,112.2 78,111.8 76.6,111.4 C75.2,111 73.8,110.6 72.4,110.2 C71,109.8 69.6,109.4 68.2,109 C66.8,108.6 65.4,108.2 64,107.8 C62.6,107.4 61.2,107 59.8,106.6 C58.4,106.2 57,105.8 55.6,105.4 C54.2,105 52.8,104.6 51.4,104.2 C50,103.8 48.6,103.5 47.2,103.1 C45.8,102.7 44.3,102.5 42.9,102.2 C41.4,101.9 40,101.7 38.5,101.5 C37,101.3 35.5,101.1 34,101 C32.5,100.9 30.9,100.8 29.4,100.8 C27.9,100.8 26.3,100.9 24.6,101 C22.9,101.1 21.4,101.4 19.7,101.7 C18,102 16.4,102.4 14.6,103 C12.8,103.6 11.1,104.2 9.4,105 C7.7,105.8 5.8,106.7 4,107.8 L4,102.8 C4,102.8 4,96.9 4,95.4 L4,90.4 C5.8,89.3 7.7,88.3 9.4,87.6 C11.2,86.8 12.9,86.2 14.6,85.6 C16.3,85 18,84.7 19.7,84.3 C21.4,84 23,83.8 24.6,83.6 C26.2,83.5 27.8,83.4 29.4,83.4 C31,83.4 32.5,83.5 34,83.6 C35.5,83.7 37,83.9 38.5,84.1 C40,84.3 41.5,84.5 42.9,84.8 C44.3,85.1 45.8,85.4 47.2,85.7 C48.6,86 50,86.4 51.4,86.8 C52.8,87.2 54.2,87.6 55.6,88 C57,88.4 58.4,88.8 59.8,89.2 C61.2,89.6 62.6,90 64,90.4 C65.4,90.8 66.8,91.2 68.2,91.6 C69.6,92 71,92.4 72.4,92.8 C73.8,93.2 75.2,93.6 76.6,94 C78,94.4 79.4,94.7 80.8,95.1 C82.2,95.4 83.7,95.7 85.1,96 C86.5,96.3 88,96.5 89.5,96.7 C91,96.9 92.5,97.1 94,97.2 C95.5,97.3 97.1,97.4 98.6,97.4 C100.1,97.4 101.7,97.3 103.4,97.2 C105.1,97.1 106.6,96.8 108.3,96.5 C110,96.2 111.6,95.8 113.4,95.2 C115.2,94.6 116.9,94 118.6,93.2 C120.3,92.4 122.2,91.5 124,90.4 L124,95.4 L124,102.8 C124,102.8 124,105.9 124,107.8 Z" fill="#5BCEFA"/>
  <path d="M120,26.6 C120,34.77 120,106.01 120,106.01 C120,106.01 109.42,110.92 99.75,110.79 C89.11,110.66 78.92,108.24 68.79,105.29 C61.26,103.1 53.82,100.65 46.19,98.81 C35.99,96.35 25.25,95.97 15.09,98.75 C12.58,99.44 10.34,100.58 7.99,101.69 C7.99,94.65 7.99,87.61 7.99,80.56 C7.99,71.08 7.99,22.43 7.99,22.43 C7.99,22.43 14.66,18.57 24.67,17.6 C34.75,16.62 44.76,18.88 54.4,21.54 C73.33,26.76 93.45,35.51 113.25,29.29 C115.56,28.58 117.83,27.63 120,26.6 M124,20.4 C115.1,25.84 105.06,28.01 94.69,27.35 C84.33,26.68 74.3,23.65 64.38,20.81 C54.33,17.94 44.15,14.78 33.65,14.08 C28.56,13.74 19.91,13.9 11.44,17.23 C10.34,17.66 4,20.89 4,20.89 C4,20.89 4,105.4 4,107.8 C12.76,102.45 22.95,100.29 33.13,100.94 C43.74,101.62 53.84,104.89 64,107.8 C74.09,110.68 84.16,113.98 94.7,114.65 C104.78,115.29 114.17,113.59 124,107.8 C124,107.8 124,22.01 124,20.4 Z" fill="#424242" opacity="0.2"/>
</svg>
